src/components/header/Twitter_Black.svg

<?xml version="1.0" encoding="UTF-8" standalone="no"?>
<svg width="12px" height="10px" viewBox="0 0 12 10" version="1.1" xmlns="http://www.w3.org/2000/svg" xmlns:xlink="http://www.w3.org/1999/xlink">
    <!-- Generator: Sketch 50.2 (55047) - http://www.bohemiancoding.com/sketch -->
    <title>twitter-logo-silhouette (1)</title>
    <desc>Created with Sketch.</desc>
    <defs></defs>
    <g id="Page-1" stroke="none" stroke-width="1" fill="none" fill-rule="evenodd">
        <g id="NEW---hovers-/-animation-/-icons" transform="translate(-1327.000000, -966.000000)" fill="#2B2B2B">
            <g id="Nav-Icons" transform="translate(1275.000000, 963.000000)">
                <g id="Twitter-Icon-Copy" transform="translate(52.000000, 3.000000)">
                    <path d="M12,1.18291979 C11.5603468,1.38295826 11.0841341,1.52144643 10.5863604,1.58203501 C11.0953832,1.2694749 11.4834779,0.774187344 11.6700258,0.183689171 C11.193813,0.473167917 10.6669791,0.683785343 10.1026482,0.796306982 C9.65643309,0.307751491 9.01523318,0 8.30841341,0 C6.95008202,0 5.84766815,1.13098673 5.84766815,2.52452395 C5.84766815,2.72360069 5.87016639,2.91498365 5.91047574,3.09963455 C3.86313569,2.99384497 2.05108976,1.99076746 0.835247246,0.461627236 C0.622451371,0.833814195 0.501523318,1.2694749 0.501523318,1.73206386 C0.501523318,2.60723216 0.937426764,3.3814195 1.59643778,3.83150606 C1.19334427,3.8209271 0.816498711,3.70455857 0.48371221,3.51606078 L0.48371221,3.54683593 C0.48371221,4.77110983 1.33302086,5.79246009 2.45699555,6.02615888 C2.25169909,6.08193883 2.03234122,6.11175226 1.80923365,6.11175226 C1.65174596,6.11175226 1.49800797,6.09732641 1.34426998,6.06751298 C1.65924537,7.0705905 2.56667448,7.79861512 3.64377783,7.82169648 C2.80103117,8.49778804 1.73892665,8.89978842 0.585891727,8.89978842 C0.38809468,8.89978842 0.19404734,8.88824774 0,8.8661281 C1.09116475,9.58357376 2.38387626,10 3.77501758,10 C8.30091399,10 10.7766581,6.15310637 10.7766581,2.81784959 L10.7691587,2.49086363 C11.2528709,2.13406424 11.6700258,1.69070975 12,1.18291979 Z" id="twitter-logo-silhouette-(1)"></path>
                </g>
            </g>
        </g>
    </g>
</svg>

<svg width="12" height="10" xmlns="http://www.w3.org/2000/svg"><path d="M12 1.183c-.44.2-.916.338-1.414.399A2.533 2.533 0 0 0 11.67.184c-.476.29-1.003.5-1.567.612A2.429 2.429 0 0 0 8.308 0c-1.358 0-2.46 1.131-2.46 2.525 0 .199.022.39.062.575C3.863 2.994 2.051 1.99.835.462a2.556 2.556 0 0 0-.333 1.27c0 .875.435 1.65 1.094 2.1a2.378 2.378 0 0 1-1.112-.316v.03c0 1.225.849 2.246 1.973 2.48a2.48 2.48 0 0 1-1.113.042c.315 1.003 1.223 1.73 2.3 1.754A4.868 4.868 0 0 1 0 8.866 6.84 6.84 0 0 0 3.775 10c4.526 0 7.002-3.847 7.002-7.182l-.008-.327c.484-.357.901-.8 1.231-1.308z" fill="#2B2B2B" fill-rule="evenodd"/></svg>
